X: 235
U:~=!turn!
M:C
L:1/8
K:C
e/f/ | g<cg>e fddTe/f/ | gcg>e c>ege | f>de>c dD-D>E | C>Ec>E G2 G :| E | CEcE FD-D>E | C>EcE G>cEc |


